X:271
T:New Key, The
M:C|
C:© Paul Gitlitz 2010
K:F
"F"fgaf "Gm"gfd2|"F"fgaf "Gm"g4|"F"fgaf "Gm"gfdc|"C"cdfg "F"f2(3cde|!
"F"fgaf "Gm"gfd2|"F"fgaf "Gm"g2(3cde|"F"fgaf "Gm"gfd2|"C"cdfg "F"f2(3fga|!
|:"Bb"b2a2"Gm"gfd2|"Bb"b2a2"Gm"g2(3fga|"Bb"b2a2 "Gm"gfd2|1"C"cdfg "F"f2(3fga:|2"C"cdfg "F"f4|]
